X:32
T:Brighton Camp
R:polka 32
Z:Lewes
M:4/4
L:1/8
Q:1/4=180
K:G
|:gf|e2dc B2A2|B2G2E2D2|G2G2GABc|d4B2gf|
e2dc B2A2|B2G2E2G2|FG A2D2EF|G4G2:|
|:dc|B2d2e2f2|g2dc BA G2|Bc d2e2f2|g4f2gf|
e2dc B2A2|B2G2E2G2|FG A2D2EF|G4G2:|]

